X:13045
T:Peter Street
M:C
L:1/8
K:G Major
D|G2BG dGBG|dgg2 efge|G2BG dGBG|ADBD cAFA|!
G2BG dGBG|dgg2 efge|dBde gfge|dBAB G3:|!
D|ADFD ADFD|ADBD cAFA|G2BG dGBG|dgg2 efge|!
dBde gfge|dBde gfge|degf edcB|AGFE DEF:|!
